thermometer-low.svg

<svg fill="currentColor" viewBox="0 0 24 24"><path d="M15 13V5a3 3 0 0 0-6 0v8a5 5 0 1 0 6 0m-3-9a1 1 0 0 1 1 1v7h-2V5a1 1 0 0 1 1-1"/></svg>

<svg  viewBox="0 0 24 24" fill="currentColor"><path  d="M15 13V5A3 3 0 0 0 9 5V13A5 5 0 1 0 15 13M12 4A1 1 0 0 1 13 5V12H11V5A1 1 0 0 1 12 4Z"/></svg>
